custom_components/lucide_icons/data/icons/podcast.svg

<?xml version="1.0" encoding="UTF-8" standalone="no"?>
<svg xmlns="http://www.w3.org/2000/svg" xmlns:svg="http://www.w3.org/2000/svg" width="24" height="24" viewBox="0 0 24 24" fill="currentColor" tags="audio,music,mic,talk,voice,subscribe,subscription,stream" categories="multimedia,social">
  <g>
    <path style="baseline-shift:baseline;display:inline;overflow:visible;vector-effect:none;fill:currentColor;stroke:none;stroke-linecap:butt;stroke-linejoin:miter;enable-background:accumulate;stop-color:#000000;stop-opacity:1" d="m 13,17 a 1,1 0 1 0 -2,0 l 0.5,4.5 a 0.5,0.5 0 0 0 1,0 z" id="path4"/>
    <path style="baseline-shift:baseline;display:inline;overflow:visible;vector-effect:none;fill:#000000;stroke:none;stroke-linecap:butt;stroke-linejoin:miter;enable-background:accumulate;stop-color:#000000;stop-opacity:1" d="m 12,15 c -0.472222,0 -0.957881,0.152014 -1.351562,0.501953 C 10.254756,15.851892 10,16.416667 10,17 a 1.0001,1.0001 0 0 0 0.0059,0.111328 l 0.5,4.5 L 10.5,21.5 c 0,0.416667 0.192256,0.856441 0.492188,1.123047 C 11.292119,22.889653 11.652778,23 12,23 12.347222,23 12.707881,22.889653 13.007813,22.623047 13.307744,22.356441 13.5,21.916667 13.5,21.5 l -0.0059,0.111328 0.5,-4.5 A 1.0001,1.0001 0 0 0 14,17 C 14,16.416667 13.745244,15.851892 13.351563,15.501953 12.957881,15.152014 12.472222,15 12,15 Z" id="path5"/>
  </g>
  <path style="baseline-shift:baseline;display:inline;overflow:visible;vector-effect:none;fill:#000000;stroke:none;stroke-linecap:butt;stroke-linejoin:miter;enable-background:accumulate;stop-color:#000000;stop-opacity:1;opacity:1" d="M 12,1 C 7.0694837,1 3.5476652,4.2778744 2.4023438,8.1914063 1.2570223,12.104938 2.4564616,16.763906 6.6113281,19.421875 A 1,1 0 0 0 7.9921875,19.119141 1,1 0 0 0 7.6894531,17.738281 C 4.2672577,15.54902 3.3960879,11.91863 4.3222656,8.7539063 5.2484433,5.5891824 7.9394508,3 12,3 c 4.060549,0 6.751557,2.5891824 7.677734,5.7539063 0.926178,3.1647237 0.05501,6.7951137 -3.367187,8.9843747 a 1,1 0 0 0 -0.302735,1.38086 1,1 0 0 0 1.38086,0.302734 C 21.543538,16.763906 22.742978,12.104938 21.597656,8.1914063 20.452335,4.2778744 16.930516,1 12,1 Z" id="path2" stroke-width="0"/>
  <path style="baseline-shift:baseline;display:inline;overflow:visible;vector-effect:none;fill:#000000;stroke:none;stroke-linecap:butt;stroke-linejoin:miter;enable-background:accumulate;stop-color:#000000;stop-opacity:1;opacity:1" d="M 12,5 C 7.1187857,5 4.2703621,10.694467 7.1992187,14.599609 a 1,1 0 0 0 1.4003907,0.201172 1,1 0 0 0 0.2011719,-1.40039 C 6.7852067,10.712958 8.6409305,7 12,7 c 3.359069,0 5.214793,3.712958 3.199219,6.400391 a 1,1 0 0 0 0.201172,1.40039 1,1 0 0 0 1.40039,-0.201172 C 19.729638,10.694467 16.881214,5 12,5 Z" id="path3" stroke-width="0"/>
  <g id="circle3" style="opacity:1" stroke-width="0">
    <path style="baseline-shift:baseline;display:inline;overflow:visible;vector-effect:none;fill:currentColor;stroke:none;stroke-linecap:butt;stroke-linejoin:miter;enable-background:accumulate;stop-color:#000000;stop-opacity:1" d="m 13,11 a 1,1 0 0 1 -1,1 1,1 0 0 1 -1,-1 1,1 0 0 1 1,-1 1,1 0 0 1 1,1 z" id="path6"/>
    <path style="baseline-shift:baseline;display:inline;overflow:visible;vector-effect:none;fill:#000000;stroke:none;stroke-linecap:butt;stroke-linejoin:miter;enable-background:accumulate;stop-color:#000000;stop-opacity:1" d="m 12,9 c -1.092725,0 -2,0.9072751 -2,2 0,1.092725 0.907275,2 2,2 1.092725,0 2,-0.907275 2,-2 0,-1.0927249 -0.907275,-2 -2,-2 z" id="path7"/>
  </g>
</svg>

<?xml version="1.0" encoding="UTF-8" standalone="no"?>
<svg xmlns="http://www.w3.org/2000/svg" xmlns:svg="http://www.w3.org/2000/svg" width="24" height="24" viewBox="0 0 24 24" fill="currentColor" tags="audio,music,mic,talk,voice,subscribe,subscription,stream" categories="multimedia,social">
  <path d="M 12 1 C 7.0694837 1 3.5476652 4.2778743 2.4023438 8.1914062 C 1.2570222 12.104938 2.4564616 16.763906 6.6113281 19.421875 A 1 1 0 0 0 7.9921875 19.119141 A 1 1 0 0 0 7.6894531 17.738281 C 4.2672577 15.54902 3.3960879 11.91863 4.3222656 8.7539062 C 5.2484433 5.5891823 7.9394508 3 12 3 C 16.060549 3 18.751557 5.5891823 19.677734 8.7539062 C 20.603912 11.91863 19.732744 15.54902 16.310547 17.738281 A 1 1 0 0 0 16.007812 19.119141 A 1 1 0 0 0 17.388672 19.421875 C 21.543538 16.763906 22.742978 12.104938 21.597656 8.1914062 C 20.452335 4.2778743 16.930516 1 12 1 z M 12 5 C 7.1187857 5 4.2703621 10.694467 7.1992188 14.599609 A 1 1 0 0 0 8.5996094 14.800781 A 1 1 0 0 0 8.8007812 13.400391 C 6.7852066 10.712958 8.6409305 7 12 7 C 15.359069 7 17.214793 10.712958 15.199219 13.400391 A 1 1 0 0 0 15.400391 14.800781 A 1 1 0 0 0 16.800781 14.599609 C 19.729638 10.694467 16.881214 5 12 5 z M 12 9 C 10.907275 9 10 9.9072751 10 11 C 10 12.092725 10.907275 13 12 13 C 13.092725 13 14 12.092725 14 11 C 14 9.9072751 13.092725 9 12 9 z M 12 15 C 11.527778 15 11.042119 15.152014 10.648438 15.501953 C 10.254755 15.851892 10 16.416667 10 17 A 1.0001 1.0001 0 0 0 10.005859 17.111328 L 10.501953 21.576172 L 10.501953 21.578125 L 10.505859 21.611328 C 10.536334 21.993365 10.71886 22.380089 10.992188 22.623047 C 11.292118 22.889653 11.652778 23 12 23 C 12.347222 23 12.70788 22.889653 13.007812 22.623047 C 13.281139 22.380089 13.463666 21.993365 13.494141 21.611328 L 13.498047 21.578125 L 13.498047 21.576172 L 13.994141 17.111328 A 1.0001 1.0001 0 0 0 14 17 C 14 16.416667 13.745244 15.851892 13.351562 15.501953 C 12.95788 15.152014 12.472222 15 12 15 z "/>
</svg>
